icons/female.svg

<svg xmlns="http://www.w3.org/2000/svg" xml:space="preserve" viewBox="0 0 30 30"><path d="M24.4 7.3c-.5-1.8-1.5-3.4-2.9-4.6C18.1-.6 12.8-.9 9 2c-.5.4-1.1.9-1.5 1.5C5.3 6.1 4.7 9.8 5.9 13s4.2 5.5 7.5 6v3.6H9.6c-.1 0-.3 0-.4.1-.2.1-.2.3-.2.5V25c0 .2 0 .4.1.5s.3.1.4.1h3.8v3.8c0 .1 0 .3.1.4.2.2.4.2.6.2h1.8c.2 0 .4 0 .5-.1s.1-.3.1-.4v-3.8h3.8c.2 0 .4 0 .5-.2.1-.1.1-.3.1-.4v-1.9c0-.2 0-.4-.1-.5s-.3-.1-.4-.1h-3.8V19c2.6-.5 5-2 6.5-4.2 1.2-1.8 1.9-4 1.7-6.2-.1-.5-.2-.9-.3-1.3m-2.2 2.6c-.1 4.2-4.2 7.5-8.3 6.9-3.6-.5-6.3-3.7-6.3-7.3 0-1.5.5-3.1 1.4-4.3 2.5-3.3 6.9-3.8 10.5-1.3 1.9 1.2 2.8 3.7 2.7 6" style="fill:#f2369e"/></svg>

<?xml version="1.0" encoding="utf-8"?>
<!-- Generator: Adobe Illustrator 26.1.0, SVG Export Plug-In . SVG Version: 6.00 Build 0)  -->
<svg version="1.1" xmlns="http://www.w3.org/2000/svg" xmlns:xlink="http://www.w3.org/1999/xlink" x="0px" y="0px"
	 viewBox="0 0 30 30" style="enable-background:new 0 0 30 30;" xml:space="preserve">
<style type="text/css">
	.st0{fill:#F2369E;}
</style>
<g id="Capa_1">
	<path class="st0" d="M24.4,7.3c-0.5-1.8-1.5-3.4-2.9-4.6C18.1-0.6,12.8-0.9,9,2C8.5,2.4,7.9,2.9,7.5,3.5C5.3,6.1,4.7,9.8,5.9,13
		s4.2,5.5,7.5,6c0,1.2,0,2.4,0,3.6c-1.3,0-2.6,0-3.8,0c-0.1,0-0.3,0-0.4,0.1C9,22.8,9,23,9,23.2c0,0.6,0,1.2,0,1.8
		c0,0.2,0,0.4,0.1,0.5c0.1,0.1,0.3,0.1,0.4,0.1c1.3,0,2.6,0,3.8,0c0,1.3,0,2.6,0,3.8c0,0.1,0,0.3,0.1,0.4C13.6,30,13.8,30,14,30
		c0.6,0,1.2,0,1.8,0c0.2,0,0.4,0,0.5-0.1c0.1-0.1,0.1-0.3,0.1-0.4c0-1.3,0-2.6,0-3.8c1.3,0,2.5,0,3.8,0c0.2,0,0.4,0,0.5-0.2
		c0.1-0.1,0.1-0.3,0.1-0.4c0-0.6,0-1.3,0-1.9c0-0.2,0-0.4-0.1-0.5c-0.1-0.1-0.3-0.1-0.4-0.1c-1.3,0-2.6,0-3.8,0c0-1.2,0-2.4,0-3.6
		c2.6-0.5,5-2,6.5-4.2c1.2-1.8,1.9-4,1.7-6.2C24.6,8.1,24.5,7.7,24.4,7.3z M22.2,9.9c-0.1,4.2-4.2,7.5-8.3,6.9
		c-3.6-0.5-6.3-3.7-6.3-7.3C7.6,8,8.1,6.4,9,5.2c2.5-3.3,6.9-3.8,10.5-1.3C21.4,5.1,22.3,7.6,22.2,9.9z"/>
</g>
<g id="Capa_1_copy">
</g>
</svg>
